icons/camera.svg

<svg xmlns="http://www.w3.org/2000/svg" viewBox="0 0 24 24" fill="currentColor">
  <path d="M7.75 5.25018c0-.58577.46422-1.04998 1.05002-1.04998H15.2c.5858 0 1.05.4642 1.05 1.04998V6.4502c0 .01673.0005.03334.0016.0498-.0011.01646-.0016.03307-.0016.0498 0 .41422.3358.75.75.75 1.7858 0 3.25 1.46422 3.25 3.25v6c0 1.7858-1.4642 3.25-3.25 3.25H7c-1.78579 0-3.25-1.4642-3.25-3.25v-6c0-1.77868 1.45258-3.23834 3.2287-3.24993L7 7.30017c.41421 0 .75-.33579.75-.75V5.25018Zm-1.5.60908v-.60908c0-1.41423 1.13582-2.54998 2.55002-2.54998H15.2c1.4142 0 2.55 1.13577 2.55 2.54998v.60908c2.2607.36187 4 2.3314 4 4.69054v6c0 2.6142-2.1358 4.75-4.75 4.75H7c-2.61421 0-4.75-2.1358-4.75-4.75v-6c0-2.35914 1.73934-4.32867 4-4.69054ZM12 12.2998c-1.2426 0-2.25 1.0074-2.25 2.25s1.0074 2.25 2.25 2.25 2.25-1.0074 2.25-2.25-1.0074-2.25-2.25-2.25Zm-3.75 2.25c0-2.0711 1.67893-3.75 3.75-3.75 2.0711 0 3.75 1.6789 3.75 3.75s-1.6789 3.75-3.75 3.75c-2.07107 0-3.75-1.6789-3.75-3.75Zm1.75-6.75c-.41421 0-.75.33579-.75.75 0 .41422.33579.75.75.75h4c.4142 0 .75-.33578.75-.75 0-.41421-.3358-.75-.75-.75h-4Z"/>
</svg>

<svg width="24" height="24" viewBox="0 0 24 24" fill="none" xmlns="http://www.w3.org/2000/svg">
<path fill-rule="evenodd" clip-rule="evenodd" d="M7.75 5.25018C7.75 4.66441 8.21422 4.2002 8.80002 4.2002H15.2C15.7858 4.2002 16.25 4.6644 16.25 5.25018V6.4502C16.25 6.46693 16.2505 6.48354 16.2516 6.5C16.2505 6.51646 16.25 6.53307 16.25 6.5498C16.25 6.96402 16.5858 7.2998 17 7.2998C18.7858 7.2998 20.25 8.76402 20.25 10.5498V16.5498C20.25 18.3356 18.7858 19.7998 17 19.7998H7C5.21421 19.7998 3.75 18.3356 3.75 16.5498V10.5498C3.75 8.77112 5.20258 7.31146 6.9787 7.29987L7 7.30017C7.41421 7.30017 7.75 6.96438 7.75 6.55017V6.5498V5.25018ZM6.25 5.85926V5.25018C6.25 3.83595 7.38582 2.7002 8.80002 2.7002H15.2C16.6142 2.7002 17.75 3.83597 17.75 5.25018V5.85926C20.0107 6.22113 21.75 8.19066 21.75 10.5498V16.5498C21.75 19.164 19.6142 21.2998 17 21.2998H7C4.38579 21.2998 2.25 19.164 2.25 16.5498V10.5498C2.25 8.19066 3.98934 6.22113 6.25 5.85926ZM12 12.2998C10.7574 12.2998 9.75 13.3072 9.75 14.5498C9.75 15.7924 10.7574 16.7998 12 16.7998C13.2426 16.7998 14.25 15.7924 14.25 14.5498C14.25 13.3072 13.2426 12.2998 12 12.2998ZM8.25 14.5498C8.25 12.4787 9.92893 10.7998 12 10.7998C14.0711 10.7998 15.75 12.4787 15.75 14.5498C15.75 16.6209 14.0711 18.2998 12 18.2998C9.92893 18.2998 8.25 16.6209 8.25 14.5498ZM10 7.7998C9.58579 7.7998 9.25 8.13559 9.25 8.5498C9.25 8.96402 9.58579 9.2998 10 9.2998H14C14.4142 9.2998 14.75 8.96402 14.75 8.5498C14.75 8.13559 14.4142 7.7998 14 7.7998H10Z" fill="black"/>
</svg>
